Catalina-light/actions/16/view-sidetree.svg

<svg width="16" height="16" viewBox="0 0 16 16" xmlns="http://www.w3.org/2000/svg">
<defs>
<style id="current-color-scheme" type="text/css">.ColorScheme-Text { color:#5c616c; } .ColorScheme-Highlight { color:#5294e2; }</style>
</defs>
<path class="ColorScheme-Text" d="m0 1v14c5.3333-2e-3 10.667 0.005906 16 0.003906v-14c-5.3333 2e-3 -10.667-0.0059062-16-0.0039062zm7 2v10.004l-5 0.001953v-10.002l5-0.0039062z" fill="currentColor"/>
</svg>

<svg xmlns="http://www.w3.org/2000/svg" width="16" height="16" viewBox="0 0 16 16">
 <defs>
  <style id="current-color-scheme" type="text/css">
   .ColorScheme-Text { color:#5c616c; } .ColorScheme-Highlight { color:#5294e2; }
  </style>
 </defs>
 <path style="fill:currentColor" class="ColorScheme-Text" d="M 0 1 L 0 15 C 5.3333 14.998 10.667 15.005906 16 15.003906 L 16 1.0039062 C 10.6667 1.0059062 5.333 0.998 0 1 z M 7 3 L 7 13.003906 L 2 13.005859 L 2 3.0039062 L 7 3 z"/>
</svg>
